X: 14009
T: BEAR HUG REEL
C: Bob McQuillen 30 Oct.'08
B: Bob's Note Book 14 #9
%R: reel
%D:2008
Z: 2020 John Chambers <jc:trillian.mit.edu>
M: C
L: 1/8
K: A
EG \
| A2A2 AGEG | A2Ac AGEA | G2AG DEGA | BAGB AGEG |
| A2AG AGEG | AGAc A2cA | GABG DGAc | BAGB A2  :|
|: Ac \
| d2ec dcAc | ecdc A2GA | c2cd egec | GAce dcAc |
| d2ce d2Ac | ecdc A2cA | GAcd egag | ecAG A2  :|
%%begintext align
%% Did you ever hug a bear?
%% Or get hugged _by_ a bear? Well, I came close when I played
%% for the Bear Hug '08 Dance Camp in Rollins, MT. It was their
%% 25th anniversary, and Helen Pilling and Dan'l Moore of Kila,
%% MT, got us "Rhthym Rollers" out there along with "KGB", to
%% play for them. It was a great time. Good Food!! (For the best in
%% instrument cases, look up Coon Hollow Canvas, Kila, MT.!)
%%endtext

%%sep 1 1 500

%%sep 1 1 500

